X: 5
T:Social Powers. WCl.05
M:6/8
L:1/8
Q:120
S:William Clarke MS,Lincoln,1770.
R:Jig
O:Lincoln
A:England
Z:vmp.Barry Callaghan
K:G
d2d d2c|B2c d3|e2d gfe|e3 d3|!
ded d2c|B2c d3|ded cBA|G3 G3::!
g2g f2e|dfg a3|b2g gag|f3 d3|!
g2g f2e|dfg a3|bag agf|g3 G3:||
